X: 1
T: Funicul\`i-Funicul\`a    [G]
C: music: Luigi D'Enza 1880
C: words: Giuseppe "Peppino" Turco
R: tarantella
M: 6/8
L: 1/8
Z: 1999 John Chambers <jc@trillian.mit.edu>
K: G
%%continueall
% - - - - - - - - - - - - - - - - - - - - - - - - -
"A"|: d3 | "G"g6- | g2g f2f | d2d e2e | B3 B3- | B2B "D7"A2G | "G"G6 | z2B "D7"A2G | "G"G6 | z3 :|
w: 1.~Ais-se-_ra, Nan-ni-n\`e, me ne sa-gliet-te,_ Tu sa-ie~ad-d\'o? Tu sa-ie~ad-d\'o?
w: Ad-d\'o_ sto co-re ngra-to cchi\`u di-spiet-te_ Far-me non p\`o! Far-me non p\`o!
%
"B"[|] B3 | "Bm"B6- | B2B "F#7"^c2c | "Bm"B2B "F#7"^c2c | "Bm"B3 B3- | B2F "F#7"F2F | "Bm"F6 | z2F "F#7"F2F | "Bm"F6 | z3 d3 |
w: Ad-d\'o_ Ilo fuo-co co-ce, ma si fu-je._ Te las-sa st\`a! Te las-sa st\`a! E
%
"D"d6- | d2d "A7"e2e | "D"d2d "A7"e2e | "D"d3 d3- | d2A "A7"A2A | "D"A6 | z2A "A7"A2A | "D"A6- | Az2 z3
w: non_ te cor-re~ap-pri-es-so, non~te stru-je,_ Su-lo~a guar-d\`a! Su-lo~a guar-d\`a!_
%
"C"|: "D7"[f3d3] [ec]z2 | [f3d3] [ec]z2 | "(C)"[g2e2][fd] [e2c2][ge] | "D7"[f3d3] z3 |
w: Jam-mo, jam-mo,  ncop-pa, jam-mo j\`a,
%
"D7"[f3d3] [ec]z2 | [f3d3] [ec]z2 | "(C)"[g2e2][fd] [e2c2][ge] | "G"[d2B2][BG] [B2G2][BG] |
w: Jam-mo, jam-mo,  ncop-pa, jam-mo j\`a. Fu-ni-cu-
%
"B7"[B2A2][BA] [B2A2][BA] | "Em"[B2G2][BG] [B2G2][BG] | "B7"[B2F2][BF] [B2F2][BF] | H"Em"[g6e6B6G6E6] |
w: l\`i, fu-ni-cu-l\`a, fu-ni-cu- l\`i, fu-ni-cu-l\`a!
%
"C"[a2f2][ge] [e2c2][ge] | "G"[d2B2][BG] [B2G2][cA] | "D7"[d2B2][cA] [B2G2][AF] | "G"[G3G3] z3 :| Hz3 |]
w: ncop-pa jam-mo j\`a, fu-ni-cu-l\`i, fu-ni-cu-l\`a!
% - - - - - - - - - - - - - - - - - - - - - - - - -
W:2.N\`e... jammo da la terra a la montagna!  no passo nc'\`e!
W: Se vede Francia, Proceta e la Spagna ...  Io veco a tte!
W: Tirate co la fune, ditto nfatto, ncielo se va.
W: Se va comm' a lu viento a l'intrasatto, gu\`e, saglie s\`a!
W:    Jammo, jammo ...
W:
W:3.Se n'\`e sagliuta, oi N\`e, se n'\`e sagliuta la capa gi\`a!
W: \`E gghiuta, p\`o \`e turnata, p\`o \`e venuta...  sta sempe 'cc\`a!
W: La capa vota, vota, attuorno, attuorno, attuorno a tte!
W: Sto core canta sempe nu taluorno Sposammo, oi N\`e!
W:    Jammo ncoppa, ...

%%sep 2 1 400


